icons/svgs/link-outline.svg

<svg width="25" height="24" viewBox="0 0 25 24" fill="none" xmlns="http://www.w3.org/2000/svg">
<path d="M22.6562 12.4688L18.2422 16.8828C16.0156 19.0703 12.4609 19.0703 10.2734 16.8828C8.20312 14.7734 8.08594 11.4531 10 9.22657L10.1953 8.9922C10.5469 8.60157 11.1328 8.56251 11.5234 8.91407C11.9141 9.26564 11.9531 9.85157 11.6016 10.2422L11.4453 10.4375C10.1172 11.9219 10.1953 14.1484 11.6016 15.5547C13.0469 17 15.4297 17 16.9141 15.5547L21.3281 11.1406C22.7734 9.65626 22.7734 7.31251 21.3281 5.82814C19.9219 4.46095 17.6953 4.38282 16.2109 5.67189L15.9766 5.8672C15.5859 6.21876 15 6.1797 14.6484 5.78907C14.2969 5.39845 14.3359 4.81251 14.7266 4.46095L14.9609 4.26564C17.1875 2.31251 20.5469 2.4297 22.6562 4.50001C24.8438 6.68751 24.8438 10.2422 22.6562 12.4688ZM2.30469 11.5703L6.75781 7.15626C8.94531 4.96876 12.5 4.96876 14.6875 7.15626C16.7969 9.22657 16.9141 12.5859 14.9609 14.8125L14.7266 15.0469C14.4141 15.4375 13.7891 15.5156 13.3984 15.1641C13.0078 14.8125 12.9688 14.2266 13.3203 13.8359L13.5547 13.6016C14.8438 12.1172 14.7656 9.89064 13.3594 8.48439C11.9141 7.00001 9.53125 7.00001 8.08594 8.48439L3.63281 12.8984C2.1875 14.3438 2.1875 16.7266 3.63281 18.2109C5.03906 19.5781 7.26562 19.6563 8.75 18.3672L8.98438 18.1719C9.375 17.8203 9.96094 17.8594 10.3125 18.25C10.6641 18.6406 10.625 19.2266 10.2344 19.5781L10 19.7734C7.77344 21.7266 4.41406 21.6094 2.30469 19.5391C0.117188 17.3516 0.117188 13.7578 2.30469 11.5703Z" fill="black"/>
</svg>

<svg xmlns="http://www.w3.org/2000/svg" width="24" height="24" fill="currentColor" class="icon-link-outline" viewBox="0 0 24 24">
  <mask id="a" width="25" height="20" x="0" y="2" maskUnits="userSpaceOnUse" style="mask-type:alpha">
    <path d="m22.656 12.469-4.414 4.414c-2.226 2.187-5.781 2.187-7.969 0-2.07-2.11-2.187-5.43-.273-7.656l.195-.235a.933.933 0 0 1 1.328-.078c.391.352.43.938.079 1.328l-.157.195a3.707 3.707 0 0 0 .157 5.118c1.445 1.445 3.828 1.445 5.312 0l4.414-4.414a3.796 3.796 0 0 0 0-5.313c-1.406-1.367-3.633-1.445-5.117-.156l-.234.195a.933.933 0 0 1-1.329-.078.933.933 0 0 1 .079-1.328l.234-.195c2.226-1.953 5.586-1.836 7.695.234 2.188 2.188 2.188 5.742 0 7.969M2.305 11.57l4.453-4.414a5.61 5.61 0 0 1 7.93 0c2.109 2.07 2.226 5.43.273 7.657l-.234.234c-.313.39-.938.469-1.329.117a.933.933 0 0 1-.078-1.328l.235-.234a3.747 3.747 0 0 0-.196-5.118 3.68 3.68 0 0 0-5.273 0l-4.453 4.414c-1.445 1.446-1.445 3.829 0 5.313 1.406 1.367 3.633 1.445 5.117.156l.234-.195a.933.933 0 0 1 1.329.078.933.933 0 0 1-.079 1.328l-.234.195c-2.227 1.954-5.586 1.836-7.695-.234-2.188-2.187-2.188-5.781 0-7.969"/>
  </mask>
  <g mask="url(#a)">
    <path d="M0 0h24v24H0z"/>
  </g>
</svg>
